X:202
T: Jesus am Kreuze (3-6), S. 27
N: P0977
O: Lothringen
S: PINCK, Louis: Verklingende Weisen, Bd3, Metz 1933]
R: yyy]
M: 3/4
L: 1/8
K: G
D2 | G3Bdc | B2A2
G2 | D2c2B2 | A4
d2 | e2c2e2 | d2B2
d2 | edc2A2 | G2D2
BG | d2d2c2 | B4
d2 | e2c2e2 | d2B2
d2 | edc2A2 | G2D2
BG | d2d2c2 | B4

@@@ Tune index: 7752
